X:714
%%etbk:tnset id:449,pos:1,rep:3x,ant:
%%etbk:wsite https://thesession.org/tunes/207
%%etbk:video src:ytube,cde:aKIEfSSEYmk,desc:
%%etbk:pldat 2015-08-14T17:03,2015-05-20T18:13
T: Bunker Hill
Z: Piano Box Version by Martin Fleischmann
H: Created 2015-04-29 /  Last Modified 2015-08-14
R: reel
M: 4/4
L: 1/8
K: Dmix
cA |: !2!GE!5!c!1!E !1!D3 D| !2!(3EFG !2!AB !4!cABc | !3!ABAG !1!E!2!~G3 | ABcA !5!d!3!AcA|
GEcE D3D|(3EFG AB c2Bc | dBcA BGGG| ABcA d2 cA:|
|:!1!G!3!~c3 e~c3 | G!3!ccc !3!cAGc | !1!Ad !3!(3ddd fd (3ddd | Addd dc!1!A!1!G|
!2!F!1!GAB !4!cAdB | !4!cAdB c2 Bc | dB (3cBA B~G3 |1 ABcA d2 cA :|2 ABce d2 ag||
|:fd (3ddd fdad | fadf a2 gf | ge (3eee gebe | gbeg b2 ag|
fd (3ddd dcAB | cAdB c2 Bc  | (3dcB cA BGGG|1 ABcA dfag:|2 ABcA d2 cA||


